X: 19629
T: Jawbones
R: polka
M: 2/4
K: Fmajor
F|(EG B)d|cA Ac|cd/c/ BG/G/|FA AF|
EG Bd/d/|cA Ac/c/|cd/c/ BG|GG A2:|
|:Bd fd|c/c/A/A/ F2|cd/c/ B/B/G/G/|FA AF|
Bd fd|c/c/A/A/ F2|cd/c/ B/B/G/G/|GF F2:|

